!!!!SEGMENT: pl-wnifc--3119-n--006_szymanowska-maria--duoze-exercices-no-6-con-brio.krn
!!!cenid: 18xx:3838
!!!COM: Szymanowska, Maria
!!!COM-rismID: pe140138
!!!CDT: 1789/12/14-1831/07/25
!!!CNT: Polish
!!!GTL: Duoze Exercices
!!!OTL: No. 6. Con brio
!!!PDT: 1825
!!!AGN:
!!!SMS-siglum: PL-Wnifc
!!!SMS-shelfmark: 3119/n
!!!SMS-shelfwork: 006 G
!!!SMS-variant:
!!!SMS-altvar:
!!!NIFC-rismSourceID: 1001142147
!!!NIFC-rismChildID: 1001142154
!!!NIFC-islandoraID: nifc:212170
!!!URL-pdf-islandora: https://repozytorium.nifc.pl/islandora/object/nifc%3A212170/datastream/PDF/view
!!!URL-scan: https://polish.musicsources.pl/pl/lokalizacje/galeria/druki-muzyczne/16830 @EN{Scan on Polish Music Sources Website} @PL{Skany w portalu Dziedzictwo Muzyki Polskiej w otwartym dostępie}
!!!ONB-nifc:
!!!AIN: 1 piano
!!!key: A
**kern	**fing	**dynam	**kern	**fing	**dynam
*part2	*	*part2	*part1	*	*part1
*staff2	*	*	*staff1	*	*
*I"Piano	*	*	*I"Piano	*	*
*I'P-no	*	*	*I'P-no	*	*
*ICklav	*	*	*	*	*
*Ipiano	*	*	*	*	*
*clefF4	*	*	*clefG2	*	*
*k[b-e-a-]	*	*	*k[b-e-a-]	*	*
*A:	*	*	*A:	*	*
*M4/4	*	*	*M4/4	*	*
*met(c)	*	*	*met(c)	*	*
=1	=1	=1	=1	=1	=1
*^	*	*	*	*	*
!	!	!	!	!LO:TX:a:t=Con brio	!	!
4r	1E-	5	.	(12e-/L	2	p
.	.	.	.	12g/	1	.
.	.	.	.	12b-/J)	3	.
8.G/L	.	3	.	12bb-\L	5	.
.	.	.	.	12g\	1	.
.	.	.	.	12gg\J	5	.
16B-/Jk	.	2	.	.	.	.
4e-^/	.	1	.	12b-/L	2	.
.	.	.	.	12g/	1	.
.	.	.	.	12b-/J	3	.
4d/	.	1	.	12a-/L	2	.
.	.	.	.	12f/	1	.
.	.	.	.	12b-/J	5	.
=2	=2	=2	=2	=2	=2	=2
4r	1E-	.	.	12e-/L	.	.
.	.	.	.	12g/	.	.
.	.	.	.	12b-/J	.	.
8.G/L	.	.	.	12bb-\L	.	.
.	.	.	.	12b-\	.	.
.	.	.	.	12gg\J	.	.
16B-/Jk	.	.	.	.	.	.
4e-^/	.	.	.	12b-/L	.	.
.	.	.	.	12g/	.	.
.	.	.	.	12b-/J	.	.
4d/	.	.	.	12a-/L	.	.
.	.	.	.	12f/	.	.
.	.	.	.	12b-/J	4	.
=3	=3	=3	=3	=3	=3	=3
4r	2E-\	.	.	12g/L	2	.
.	.	.	.	12e-/	1	.
.	.	.	.	12b-/J	4	.
8.c-X^/L	.	.	.	12a-/L	3	.
.	.	.	.	12f/	1	.
.	.	.	.	12b-/J	4	.
16B-/Jk	.	.	.	.	.	.
4r	2E-\	.	.	12g/L	.	.
.	.	.	.	12e-/	.	.
.	.	.	.	12b-/J	.	.
8.c-^/L	.	.	.	12a-/L	.	.
.	.	.	.	12f/	.	.
.	.	.	.	12b-/J	.	.
16B-/Jk	.	.	.	.	.	.
=4	=4	=4	=4	=4	=4	=4
4r	2E-\	.	.	12e-/L	2	.
.	.	.	.	12g/	1	.
.	.	.	.	12b-/J	2	.
4e- 4B- 4G/	.	.	.	12bb-\L	5	sf
.	.	.	.	12b-\	1	.
.	.	.	.	12bb-\J	5	.
4r	2C\	.	.	12en/L	.	.
.	.	.	.	12g/	.	.
.	.	.	.	12b-/J	.	.
4en 4B- 4G/	.	.	.	12ccc\L	.	sf
.	.	.	.	12b-\	.	.
.	.	.	.	12ccc\J	.	.
!!LO:LB:g=original
=5	=5	=5	=5	=5	=5	=5
4r	1F	.	.	12a-\L	.	.
.	.	.	.	12cc\	.	.
.	.	.	.	12ff\J	.	.
8.A-/L	.	.	.	12ccc\L	.	.
.	.	.	.	12a-\	.	.
.	.	.	.	12aa-\J	.	.
16c/Jk	.	.	.	.	.	.
4f^/	.	.	.	12cc/L	.	.
.	.	.	.	12a-/	.	.
.	.	.	.	12cc/J	.	.
4en/	.	.	.	12b-/L	.	.
.	.	.	.	12g/	.	.
.	.	.	.	12cc/J	.	.
=6	=6	=6	=6	=6	=6	=6
4r	1F	.	.	12a-\L	.	.
.	.	.	.	12cc\	.	.
.	.	.	.	12ff\J	.	.
8.A-/L	.	.	.	12ccc\L	.	.
.	.	.	.	12a-\	.	.
.	.	.	.	12aa-\J	.	.
16c/Jk	.	.	.	.	.	.
4f^/	.	.	.	12cc/L	.	.
.	.	.	.	12a-/	.	.
.	.	.	.	12cc/J	.	.
4en/	.	.	.	12b-\L	.	.
.	.	.	.	12g\	.	.
.	.	.	.	12ccc\J	.	.
*v	*v	*	*	*	*	*
=7	=7	=7	=7	=7	=7
8qF/	.	.	.	.	.
4f\	.	.	12aa-L 12ff\	.	.
.	.	.	12cc\	.	.
.	.	.	12ccc\J	.	.
8qC/	.	.	.	.	.
4en\	.	.	12bb-L 12gg\	.	.
.	.	.	12cc\	.	.
.	.	.	12ccc\J	.	.
8qC/	.	.	.	.	.
4f\	.	.	12aa-L 12ff\	.	.
.	.	.	12cc\	.	.
.	.	.	12ccc\J	.	.
8qBB-/	.	.	.	.	.
4d\	.	.	12aa-L 12ff\	.	rfz
.	.	.	12cc\	.	.
.	.	.	12bb-\J	.	.
=8	=8	=8	=8	=8	=8
8qBB-/	.	.	.	.	.
4e-\	.	.	12ggL 12ee-\	.	.
.	.	.	12b-\	.	.
.	.	.	12bb-\J	.	.
8qBB-/	.	.	.	.	.
4d\	.	.	12aa-L 12ff\	.	.
.	.	.	12b-\	.	.
.	.	.	12bb-\J	.	.
8qBB-/	.	.	.	.	.
4e-\	.	.	12ggL 12ee-\	.	.
.	.	.	12b-\	.	.
.	.	.	12bb-\J	.	.
8qBBn/	.	.	.	.	.
4d\	.	.	12ffL 12dd\	.	rfz
.	.	.	12g\	.	.
.	.	.	12gg\J	.	.
=9	=9	=9	=9	=9	=9
8qC/	.	.	.	.	.
4c\	.	.	12ee-L 12cc\	.	.
.	.	.	12g\	.	.
.	.	.	12gg\J	.	.
8qAAn/	.	.	.	.	.
4c\	.	.	12ee-L 12cc\	.	.
.	.	.	12f\	.	.
.	.	.	12ff\J	.	.
8qBB-/	.	.	.	.	.
4B-\	.	.	12ddL 12b-\	.	.
.	.	.	12f\	.	.
.	.	.	12ff\J	.	.
8qEE-/	.	.	.	.	.
4E-\	.	.	12gL 12e-/	.	sf
.	.	.	12c/	.	.
.	.	.	12cc/J	.	.
!!LO:LB:g=original
=10	=10	=10	=10	=10	=10
*^	*	*	*	*	*
4r	2FF\	.	.	12B-/L	.	.
.	.	.	.	12d/	.	.
.	.	.	.	12f/J	.	.
12r	.	.	.	4ff\	.	.
12G-X/L	.	.	>	.	.	.
12F/J	.	.	.	.	.	.
4r	2FF\	.	]	12An/L	.	.
.	.	.	.	12c/	.	.
.	.	.	.	12e-/J	.	.
12r	.	.	.	4ff\	.	.
12G-X/L	.	.	>	.	.	.
12F/J	.	.	.	.	.	.
=11	=11	=11	=11	=11	=11	=11
4r	1BB-	.	]	12B-/L	.	.
.	.	.	.	12d/	.	.
.	.	.	.	12f/J	.	.
!	!	!	!	!LO:TX:a:t=P:problem:mixed beam	!	!
8.D/L	.	.	.	12ff\L	.	.
.	.	.	.	12d/	.	.
.	.	.	.	12dd\J	.	.
16F/Jk	.	.	.	.	.	.
4B-/	.	.	.	12f/L	.	.
.	.	.	.	12d/	.	.
.	.	.	.	12f/J	.	.
4An/	.	.	.	12e-/L	.	.
.	.	.	.	12c/	.	.
.	.	.	.	12f/J	.	.
=12	=12	=12	=12	=12	=12	=12
4r	1BB-	.	.	12B-/L	.	.
.	.	.	.	12d/	.	.
.	.	.	.	12f/J	.	.
!	!	!	!	!LO:TX:a:t=P:problem:mixed beam	!	!
8.D/L	.	.	.	12ff\L	.	.
.	.	.	.	12d/	.	.
.	.	.	.	12dd\J	.	.
16F/Jk	.	.	.	.	.	.
4B-/	.	.	.	12f/L	.	.
.	.	.	.	12d/	.	.
.	.	.	.	12f/J	.	.
4An/	.	.	.	12e-/L	.	.
.	.	.	.	12c/	.	.
.	.	.	.	12f/J	.	.
=13	=13	=13	=13	=13	=13	=13
4r	2BB-\	.	.	12d/L	.	.
.	.	.	.	12B-/	.	.
.	.	.	.	12f/J	.	.
8.G-X^/L	.	.	.	12e-/L	.	.
.	.	.	.	12c/	.	.
.	.	.	.	12f/J	.	.
16F/Jk	.	.	.	.	.	.
4r	2BB-\	.	.	12d/L	.	.
.	.	.	.	12B-/	.	.
.	.	.	.	12f/J	.	.
8.G-^/L	.	.	.	12e-/L	.	.
.	.	.	.	12c/	.	.
.	.	.	.	12f/J	.	.
16F/Jk	.	.	.	.	.	.
=14	=14	=14	=14	=14	=14	=14
4r	2BB-\	.	.	12B-/L	.	.
.	.	.	.	12d/	.	.
.	.	.	.	12f/J	.	.
!	!	!	!	!LO:TX:a:t=P:problem:mixed beam	!	!
4B- 4F 4D/	.	.	.	12ff\L	.	.
.	.	.	.	12d/	.	.
.	.	.	.	12ff\J	.	.
4r	2GG\	.	.	12Bn/L	.	f
.	.	.	.	12d/	.	.
.	.	.	.	12f/J	.	.
!	!	!	!	!LO:TX:a:t=P:problem:mixed beam	!	!
4Bn 4G 4D/	.	.	.	12gg\L	.	.
.	.	.	.	12f/	.	.
.	.	.	.	12gg\J	.	.
=15	=15	=15	=15	=15	=15	=15
4r	1C	.	.	12e-/L	.	.
.	.	.	.	12g/	.	.
.	.	.	.	12cc/J	.	.
!	!	!	!	!LO:TX:a:t=P:problem:mixed beam	!	!
8.E-/L	.	.	.	12gg\L	.	.
.	.	.	.	12e-/	.	.
.	.	.	.	12ee-\J	.	.
16G/Jk	.	.	.	.	.	.
4c/	.	.	.	12g/L	.	.
.	.	.	.	12e-/	.	.
.	.	.	.	12g/J	.	.
4Bn/	.	.	.	12f/L	.	.
.	.	.	.	12d/	.	.
.	.	.	.	12g/J	.	.
!!LO:LB:g=original
=16	=16	=16	=16	=16	=16	=16
4r	1C	.	.	12e-/L	.	.
.	.	.	.	12g/	.	.
.	.	.	.	12cc/J	.	.
!	!	!	!	!LO:TX:a:t=P:problem:mixed beam	!	!
8.E-/L	.	.	.	12gg\L	.	.
.	.	.	.	12e-/	.	.
.	.	.	.	12ee-\J	.	.
16G/Jk	.	.	.	.	.	.
4c/	.	.	.	12g/L	.	.
.	.	.	.	12e-/	.	.
.	.	.	.	12g/J	.	.
!	!	!	!	!LO:TX:a:t=P:problem:mixed beam	!	!
4Bn/	.	.	.	12f/L	.	.
.	.	.	.	12d/	.	.
.	.	.	.	12gg\J	.	.
*v	*v	*	*	*	*	*
=17	=17	=17	=17	=17	=17
8qC/	.	.	.	.	.
4c\	.	.	12ee-L 12cc\	.	.
.	.	.	12g\	.	.
.	.	.	12gg\J	.	.
8qGG/	.	.	.	.	.
4Bn\	.	.	12ffL 12dd\	.	.
.	.	.	12g\	.	.
.	.	.	12gg\J	.	.
8qGG/	.	.	.	.	.
4c\	.	.	12ee-L 12cc\	.	.
.	.	.	12g\	.	.
.	.	.	12gg\J	.	.
8qGG/	.	.	.	.	.
4B\	.	.	12ffL 12dd\	.	.
.	.	.	12g\	.	.
.	.	.	12gg\J	.	.
=18	=18	=18	=18	=18	=18
8qGG/	.	.	.	.	.
4c\	.	.	12ee-L 12cc\	.	.
.	.	.	12g\	.	.
.	.	.	12gg\J	.	.
8qAAn/	.	.	.	.	.
4c\	.	.	12ee-L 12cc\	.	.
.	.	.	12g\	.	.
.	.	.	12ff\J	.	.
8qBB-X/	.	.	.	.	.
4B-\	.	.	12ddL 12b-\	.	.
.	.	.	12f\	.	.
.	.	.	12ff\J	.	.
8qGG/	.	.	.	.	.
!	!	!	!LO:TX:t=cre-scen-do:dur=8qe:ext=ud:problem:text with extention lines	!	!
4B-\	.	.	12ddL 12b-/	.	<
.	.	.	12e-/	.	.
.	.	.	12ee-/J	.	.
=19	=19	=19	=19	=19	=19
8qAAn/	.	.	.	.	.
4An\	.	.	12ccL 12an/	.	.
.	.	.	12e-/	.	.
.	.	.	12ee-/J	.	.
8qFF#X/	.	.	.	.	.
4A\	.	.	12ccL 12a/	.	.
.	.	.	12d/	.	.
.	.	.	12dd/J	.	.
8qGG/	.	.	.	.	.
4G\	.	.	12b-L 12g/	.	.
.	.	.	12d/	.	.
.	.	.	12dd/J	.	.
8qEEn/	.	.	.	.	.
4En\	.	.	12b-L 12g/	.	.
.	.	.	12c/	.	.
.	.	.	12cc/J	.	[[
=20	=20	=20	=20	=20	=20
*^	*	*	*	*	*
4r	1FF	.	.	12f/L	2	ff
.	.	.	.	12an/	1	.
.	.	.	.	12cc/J	2	.
8.AAn/L	.	.	.	12ccc\L	5	.
.	.	.	.	12an\	1	.
.	.	.	.	12aan\J	5	.
16C/Jk	.	.	.	.	.	.
4F/	.	.	.	12cc/L	2	.
.	.	.	.	12a/	1	.
.	.	.	.	12cc/J	3	.
4En/	.	.	.	12b-/L	2	.
.	.	.	.	12g/	1	.
.	.	.	.	12cc/J	5	.
!!LO:LB:g=original
=21	=21	=21	=21	=21	=21	=21
4r	1FF	.	.	12f/L	.	.
.	.	.	.	12an/	.	.
.	.	.	.	12cc/J	.	.
8.AAn/L	.	.	.	12ccc\L	.	.
.	.	.	.	12a\	.	.
.	.	.	.	12aan\J	.	.
16C/Jk	.	.	.	.	.	.
4F/	.	.	.	12cc/L	.	.
.	.	.	.	12a/	.	.
.	.	.	.	12cc/J	.	.
4En/	.	.	.	12b-/L	.	.
.	.	.	.	12g/	.	.
.	.	.	.	12cc/J	.	.
*v	*v	*	*	*	*	*
=22	=22	=22	=22	=22	=22
8qFF/	.	.	.	.	.
4F\	.	.	12anL 12f/	.	.
.	.	.	12c/	.	.
.	.	.	12cc/J	.	.
8qCC/	.	.	.	.	.
4En\	.	.	12b-L 12g/	.	.
.	.	.	12c/	.	.
.	.	.	12cc/J	.	.
8qCC/	.	.	.	.	.
4F\	.	.	12aL 12f/	.	.
.	.	.	12c/	.	.
.	.	.	12cc/J	.	.
8qCC/	.	.	.	.	.
4E\	.	.	12b-L 12g/	.	.
.	.	.	12c/	.	.
.	.	.	12cc/J	.	.
=23	=23	=23	=23	=23	=23
8qCC/	.	.	.	.	.
4F\	.	.	12a-XL 12f/	.	>
.	.	.	12c/	.	.
.	.	.	12cc/J	.	.
8qCC/	.	.	.	.	.
4En\	.	.	12b-L 12g/	.	.
.	.	.	12c/	.	.
.	.	.	12cc/J	.	.
8qCC/	.	.	.	.	.
4F\	.	.	12a-L 12f/	.	.
.	.	.	12c/	.	.
.	.	.	12cc/J	.	.
8qCC/	.	.	.	.	.
4E\	.	.	12b-L 12g/	.	.
.	.	.	12c/	.	.
.	.	.	12cc/J	.	.
=24	=24	=24	=24	=24	=24
2F\	.	.	12a-L 12f/	.	<
.	.	.	12c/	.	.
.	.	.	12cc/J	.	.
.	.	.	12a-L 12f/	.	.
.	.	.	12c/	.	.
.	.	.	12cc/J	.	.
2FF/	.	.	12a-L 12f/	.	.
.	.	.	12d-X/	.	.
.	.	.	12dd-X/J	.	.
.	.	.	12a-L 12f/	.	.
.	.	.	12d-/	.	.
.	.	.	12dd-/J	.	[[
=25	=25	=25	=25	=25	=25
2GG-X/	.	.	12b-L 12g-X/	.	>
.	.	.	12d-X/	.	.
.	.	.	12dd-X/J	.	.
.	.	.	12b-L 12g-/	.	.
.	.	.	12d-/	.	.
.	.	.	12dd-/J	.	.
2GGn/	.	.	12b-L 12en/	.	.
.	.	.	12d-/	.	.
.	.	.	12dd-/J	.	.
.	.	.	12b-L 12e/	.	.
.	.	.	12d-/	.	.
.	.	.	12dd-/J	.	]]
=26	=26	=26	=26	=26	=26
*^	*	*	*	*	*
4r	2AA-\	.	.	12d-X/L	.	.
.	.	.	.	12f/	.	.
.	.	.	.	12a-/J	.	.
12r	.	.	.	4aa-^\	.	.
12B--/L	.	.	>	.	.	.
12A-/J	.	.	.	.	.	.
4r	2AA-\	.	]	12c/L	.	.
.	.	.	.	12e-/	.	.
.	.	.	.	12g-X/J	.	.
12r	.	.	.	4aa-^\	.	.
12B--/L	.	.	>	.	.	.
12A-/J	.	.	.	.	.	.
!!LO:PB:g=original
=27	=27	=27	=27	=27	=27	=27
4r	1D-X	.	]	12d-X/L	.	f
.	.	.	.	12f/	.	.
.	.	.	.	12a-/J	.	.
!	!	!	!	!LO:TX:a:t=P:problem:mixed beam	!	!
8.F/L	.	.	.	12aa-\L	.	.
.	.	.	.	12f/	.	.
.	.	.	.	12ff\J	.	.
16A-/Jk	.	.	.	.	.	.
4d-X/	.	.	.	12a-/L	.	.
.	.	.	.	12f/	.	.
.	.	.	.	12a-/J	.	.
4c/	.	.	.	12g-X/L	.	.
.	.	.	.	12e-/	.	.
.	.	.	.	12a-/J	.	.
=28	=28	=28	=28	=28	=28	=28
4r	1D-X	.	.	12d-X/L	.	.
.	.	.	.	12f/	.	.
.	.	.	.	12a-/J	.	.
!	!	!	!	!LO:TX:a:t=P:problem:mixed beam	!	!
8.F/L	.	.	.	12aa-\L	.	.
.	.	.	.	12f/	.	.
.	.	.	.	12ff\J	.	.
16A-/Jk	.	.	.	.	.	.
4d-X/	.	.	.	12a-/L	.	.
.	.	.	.	12f/	.	.
.	.	.	.	12a-/J	.	.
4c/	.	.	.	12g-X/L	.	.
.	.	.	.	12e-/	.	.
.	.	.	.	12a-/J	.	.
=29	=29	=29	=29	=29	=29	=29
4r	2D-X\	.	.	12f/L	.	.
.	.	.	.	12d-X/	.	.
.	.	.	.	12a-/J	.	.
8.B--/L	.	.	.	12g-X/L	.	.
.	.	.	.	12e-/	.	.
.	.	.	.	12a-/J	.	.
16A-/Jk	.	.	.	.	.	.
4r	2D-\	.	.	12f/L	.	.
.	.	.	.	12d-/	.	.
.	.	.	.	12a-/J	.	.
8.B--/L	.	.	.	12g-/L	.	.
.	.	.	.	12e-/	.	.
.	.	.	.	12a-/J	.	.
16A-/Jk	.	.	.	.	.	.
=30	=30	=30	=30	=30	=30	=30
4r	2D\	.	.	12d-X/L	2	.
.	.	.	.	12f/	1	.
.	.	.	.	12a-/J	2	.
!	!	!	!	!LO:TX:a:t=P:problem:mixed beam	!	!
4d-X 4A- 4F/	.	.	.	12aa-\L	5	.
.	.	.	.	12f/	.	.
.	.	.	.	12aa-\J	.	.
4r	2BB-\	.	.	12dn/L	.	.
.	.	.	.	12f/	.	.
.	.	.	.	12a-/J	.	.
!	!	!	!	!LO:TX:a:t=P:problem:mixed beam	!	!
4dn 4A- 4F/	.	.	.	12bb-\L	.	.
.	.	.	.	12a-/	.	.
.	.	.	.	12bb-\J	.	.
*v	*v	*	*	*	*	*
=31	=31	=31	=31	=31	=31
4E-\	.	.	12e-/L	2	p
.	.	.	12g-X/	1	.
.	.	.	12b-/J	2	.
8.G-X\L	.	.	12bb-\L	5	.
.	.	.	12g-X\	1	.
.	.	.	12gg-X\J	5	.
16B-\Jk	.	.	.	.	.
8e-\	.	.	12b-\L	2	.
.	.	.	12g-\	1	.
8r	.	.	.	.	.
.	.	.	12ee-\J	4	.
4e- 4c 4F\	.	.	12an\L	2	f
.	.	.	12f\	1	.
.	.	.	12ff\J	5	.
*clefG2	*	*	*	*	*
!!LO:LB:g=original
=32	=32	=32	=32	=32	=32
4B-/	.	.	12b-\L	2	p
.	.	.	12dd-X\	3	.
.	.	.	12ff\J	1	.
8.d-X/L	.	.	12fff\L	5	.
.	.	.	12ff\	1	.
.	.	.	12ddd-X\J	4	.
16f/Jk	.	.	.	.	.
8b-`/	.	.	12bb-\L	2	.
.	.	.	12ff\	1	.
8r	.	.	.	.	.
.	.	.	12ddd-\J	5	.
4f 4dn 4G/	.	.	12bbn\L	2	f
.	.	.	12ff\	1	.
.	.	.	12ggg\J	5	.
=33	=33	=33	=33	=33	=33
4c/	.	.	12ee-\L	.	p
.	.	.	12gg\	.	.
.	.	.	12ccc\J	.	.
8.e-/L	.	.	12ggg\L	.	.
.	.	.	12gg\	.	.
.	.	.	12eee-\J	.	.
16g/Jk	.	.	.	.	.
8cc\	.	.	12ccc\L	.	.
.	.	.	12gg\	.	.
8r	.	.	.	.	.
.	.	.	12eee-\J	.	.
*	*	*	*8va	*	*
4aa- 4ff 4b-\	.	.	12dddn\L	.	f
.	.	.	12bb-X\	.	.
.	.	.	12bbb-\J	.	.
=34	=34	=34	=34	=34	=34
8gg 8ee-\	.	.	12gggL 12eee-\	.	.
.	.	.	12bb-\	.	.
8r	.	.	.	.	.
.	.	.	12bbb-\J	.	.
*clefF4	*	*	*	*	*
8qBB-/	.	.	.	.	.
4d\	.	.	12aaa-L 12fff\	.	.
.	.	.	12bb-\	.	.
.	.	.	12bbb-\J	.	.
8qBB-/	.	.	.	.	.
4e-\	.	.	12gggL 12eee-\	.	.
.	.	.	12bb-\	.	.
.	.	.	12bbb-\J	.	.
8qBB-/	.	.	.	.	.
4d\	.	.	12aaa-L 12fff\	.	.
.	.	.	12bb-\	.	.
.	.	.	12bbb-\J	.	.
=35	=35	=35	=35	=35	=35
8qC/	.	.	.	.	.
4e-\	.	.	12gggL 12eee-\	.	.
.	.	.	12bb-\	.	.
.	.	.	12bbb-\J	.	.
8qBBn/	.	.	.	.	.
4d\	.	.	12fffL 12ddd\	.	.
.	.	.	12gg\	.	.
.	.	.	12ggg\J	.	.
8qC/	.	.	.	.	.
4e-\	.	.	12eee-L 12ccc\	.	.
.	.	.	12gg\	.	.
.	.	.	12ggg\J	.	.
8qAAn/	.	.	.	.	.
4c\	.	.	12eee-L 12ccc\	.	.
.	.	.	12ff\	.	.
.	.	.	12fff\J	.	.
=36	=36	=36	=36	=36	=36
*^	*	*	*	*	*
4r	2BB-\	.	.	12ee-/L	.	.
.	.	.	.	12gg/	.	.
.	.	.	.	12bb-/J	.	.
12r	.	.	.	4bbb-\	.	.
12c-X/L	.	.	>	.	.	.
12B-/J	.	.	.	.	.	.
4r	2BB-\	.	]	12dd/L	.	.
.	.	.	.	12ff/	.	.
.	.	.	.	12aa-/J	.	.
12r	.	.	.	4bbb-\	.	.
12c-/L	.	.	>	.	.	.
12B-/J	.	.	.	.	.	.
*v	*v	*	*	*	*	*
*	*	*	*X8va	*	*
!!LO:LB:g=original
=37	=37	=37	=37	=37	=37
*^	*	*	*	*	*
!	!	!	!	!LO:TX:a:t=loco	!	!
4r	1E-	.	]	12e-/L	.	p
.	.	.	.	12g/	.	.
.	.	.	.	12b-/J	.	.
!	!	!	!	!LO:TX:a:t=P:problem:mixed beam	!	!
8.G/L	.	.	.	12bb-\L	.	.
.	.	.	.	12g/	.	.
.	.	.	.	12gg\J	.	.
16B-/Jk	.	.	.	.	.	.
4e-/	.	.	.	12b-/L	.	.
.	.	.	.	12g/	.	.
.	.	.	.	12b-/J	.	.
4d/	.	.	.	12a-/L	.	.
.	.	.	.	12f/	.	.
.	.	.	.	12b-/J	.	.
=38	=38	=38	=38	=38	=38	=38
4r	1E-	.	.	12e-/L	.	.
.	.	.	.	12g/	.	.
.	.	.	.	12b-/J	.	.
!	!	!	!	!LO:TX:a:t=P:problem:mixed beam	!	!
8.G/L	.	.	.	12bb-\L	.	.
.	.	.	.	12g/	.	.
.	.	.	.	12gg\J	.	.
16B-/Jk	.	.	.	.	.	.
4e-/	.	.	.	12b-/L	.	.
.	.	.	.	12g/	.	.
.	.	.	.	12b-/J	.	.
4d/	.	.	.	12a-/L	.	.
.	.	.	.	12f/	.	.
.	.	.	.	12b-/J	.	.
=39	=39	=39	=39	=39	=39	=39
4r	2E-\	.	.	12g/L	.	.
.	.	.	.	12e-/	.	.
.	.	.	.	12b-/J	.	.
8.c-X/L	.	.	.	12a-/L	.	.
.	.	.	.	12f/	.	.
.	.	.	.	12b-/J	.	.
16B-/Jk	.	.	.	.	.	.
4r	2E-\	.	.	12g/L	.	.
.	.	.	.	12e-/	.	.
.	.	.	.	12b-/J	.	.
8.c-X/L	.	.	.	12a-/L	.	.
.	.	.	.	12f/	.	.
.	.	.	.	12b-/J	.	.
16B-/Jk	.	.	.	.	.	.
=40	=40	=40	=40	=40	=40	=40
4r	2E-\	.	.	12e-/L	.	<
.	.	.	.	12g/	.	.
.	.	.	.	12b-/J	.	.
!	!	!	!	!LO:TX:a:t=P:problem:mixed beam	!	!
4e- 4B- 4G/	.	.	.	12bb-\L	.	.
.	.	.	.	12g/	.	.
.	.	.	.	12bb-\J	.	.
4r	2C\	.	.	12en/L	.	.
.	.	.	.	12g/	.	.
.	.	.	.	12b-/J	.	.
4en 4B- 4G/	.	.	.	12ccc\L	.	.
.	.	.	.	12b-\	.	.
.	.	.	.	12ccc\J	.	[[
=41	=41	=41	=41	=41	=41	=41
4r	1F	.	.	12a-\L	.	.
.	.	.	.	12cc\	.	.
.	.	.	.	12ff\J	.	.
8.A-/L	.	.	.	12ccc\L	.	.
.	.	.	.	12a-\	.	.
.	.	.	.	12aa-\J	.	.
16c/Jk	.	.	.	.	.	.
4f/	.	.	.	12cc/L	.	.
.	.	.	.	12a-/	.	.
.	.	.	.	12cc/J	.	.
4en/	.	.	.	12b-/L	.	.
.	.	.	.	12g/	.	.
.	.	.	.	12cc/J	.	.
!!LO:LB:g=original
=42	=42	=42	=42	=42	=42	=42
4r	1F	.	.	12a-\L	.	.
.	.	.	.	12cc\	.	.
.	.	.	.	12ff\J	.	.
8.A-/L	.	.	.	12ccc\L	.	.
.	.	.	.	12a-\	.	.
.	.	.	.	12aa-\J	.	.
16c/Jk	.	.	.	.	.	.
4f/	.	.	.	12cc\L	.	.
.	.	.	.	12a-\	.	.
.	.	.	.	12cc\J	.	.
4en/	.	.	.	12b-\L	.	.
.	.	.	.	12g\	.	.
.	.	.	.	12ccc\J	.	.
*v	*v	*	*	*	*	*
=43	=43	=43	=43	=43	=43
8qF/	.	.	.	.	.
4f\	.	.	12aa-L 12ff\	.	.
.	.	.	12cc\	.	.
.	.	.	12ccc\J	.	.
8qC/	.	.	.	.	.
4en\	.	.	12bb-L 12gg\	.	.
.	.	.	12cc\	.	.
.	.	.	12ccc\J	.	.
8qC/	.	.	.	.	.
4f\	.	.	12aa-L 12ff\	.	.
.	.	.	12cc\	.	.
.	.	.	12ccc\J	.	.
8qBB-/	.	.	.	.	.
4d\	.	.	12aa-L 12ff\	.	.
.	.	.	12b-\	.	.
.	.	.	12bb-\J	.	.
=44	=44	=44	=44	=44	=44
8qBB-/	.	.	.	.	.
4e-\	.	.	12ggL 12ee-\	.	<
.	.	.	12b-\	.	.
.	.	.	12bb-\J	.	.
8qBBn/	.	.	.	.	.
4d\	.	.	12ffL 12dd\	.	.
.	.	.	12g\	.	.
.	.	.	12gg\J	.	.
8qC/	.	.	.	.	.
4c\	.	.	12ee-L 12cc\	.	.
.	.	.	12g\	.	.
.	.	.	12gg\J	.	.
8qAAn/	.	.	.	.	.
4c\	.	.	12ee-L 12cc\	.	.
.	.	.	12f\	.	.
.	.	.	12ff\J	.	[[
=45	=45	=45	=45	=45	=45
*^	*	*	*	*	*
4r	2BB-\	.	.	12e-/L	.	f
.	.	.	.	12g/	.	.
.	.	.	.	12b-/J	.	.
8.c-X/L	.	.	.	4bb-\	.	.
16B-/Jk	.	.	.	.	.	.
4r	2BB-\	.	.	12d/L	.	.
.	.	.	.	12f/	.	.
.	.	.	.	12a-/J	.	.
8.c-X/L	.	.	.	4bb-\	.	.
16B-/Jk	.	.	.	.	.	.
=46	=46	=46	=46	=46	=46	=46
4r	1E-	.	.	12e-/L	.	.
.	.	.	.	12g/	.	.
.	.	.	.	12b-/J	.	.
8.G/L	.	.	.	12bb-\L	.	p
.	.	.	.	12g\	.	.
.	.	.	.	12gg\J	.	.
16B-/Jk	.	.	.	.	.	.
4e-/	.	.	.	12b-/L	.	.
.	.	.	.	12g/	.	.
.	.	.	.	12b-/J	.	.
4d/	.	.	.	12a-/L	.	.
.	.	.	.	12f/	.	.
.	.	.	.	12b-/J	.	.
!!LO:LB:g=original
=47	=47	=47	=47	=47	=47	=47
4r	1E-	.	.	12e-/L	.	.
.	.	.	.	12g/	.	.
.	.	.	.	12b-/J	.	.
8.G/L	.	.	.	12bb-\L	.	.
.	.	.	.	12g\	.	.
.	.	.	.	12gg\J	.	.
16B-/Jk	.	.	.	.	.	.
4e-/	.	.	.	12b-/L	.	.
.	.	.	.	12g/	.	.
.	.	.	.	12b-/J	.	.
4d/	.	.	.	12a-/L	.	.
.	.	.	.	12f/	.	.
.	.	.	.	12b-/J	4	.
=48	=48	=48	=48	=48	=48	=48
4r	2E-\	.	.	12g/L	2	.
!	!	!	!	!LO:TX:t=per-den-do-si:dur=4qe:ext=ud:problem:text with extention lines	!	!
!	!	!	!	!LO:TX:b:t=perdendosi	!	!
.	.	.	.	12e-/	1	.
.	.	.	.	12b-/J	4	.
8.c-X/L	.	.	.	12a-/L	3	.
.	.	.	.	12f/	1	.
.	.	.	.	12b-/J	4	.
16B-/Jk	.	.	.	.	.	.
4r	2E-\	.	.	12g/L	.	.
.	.	.	.	12e-/	.	.
.	.	.	.	12b-/J	.	.
8.c-/L	.	.	.	12a-/L	.	.
.	.	.	.	12f/	.	.
.	.	.	.	12b-/J	.	.
16B-/Jk	.	.	.	.	.	.
*v	*v	*	*	*	*	*
=49	=49	=49	=49	=49	=49
2E-\	.	.	12e-/L	2	.
.	.	.	12g/	1	.
.	.	.	12b-/J	2	.
.	.	.	12ff#X\L	4	.
.	.	.	12gg\	5	.
.	.	.	12dd\J	2	.
2r	.	.	12ee-\L	3	.
.	.	.	12an\	2	.
.	.	.	12b-\J	3	.
.	.	.	12f#X/L	2	.
.	.	.	12g/	3	.
.	.	.	12d/J	2	.
=50	=50	=50	=50	=50	=50
2r	.	.	(12e-/L	3	.
.	.	.	12An/	.	.
.	.	.	12B-/J)	.	.
.	.	.	12F#X`/L	.	.
.	.	.	12G/	.	.
.	.	.	12D/J	.	.
4r	.	.	12E-`/L	.	.
.	.	.	(12AAn/	.	.
.	.	.	12BB-/J)	.	.
12r	.	.	12FF#X`/L	.	.
12r	.	.	12GG/J	.	.
12DD\	.	.	12ryy	.	.
=51	=51	=51	=51	=51	=51
1EE-;	.	.	1r;	.	.
==	==	==	==	==	==
*-	*-	*-	*-	*-	*-
!!!RDF**kern: > = above
!!!RDF**kern: < = belo
!!!system-decoration: [(s1,s2)]
!!!ENC: Berenika Jozajtis
!!!END: 2022-07-17
!!!ENC: Urszula Świątek
!!!END: 2022-08-19
!!!YEC: Copyright 2022 Narodowy Instytut Fryderyka Chopina (https://polishscores.org)
!!!YEM: License CC-BY-4.0 (https://creativecommons.org/licenses/by/4.0)
